X:79
T:Cuncti simus concanentes
C:Llibre Vermeil de Montserrat
L:1/4
K:F
V:1
B2B | A2A | GFG | A2G | z2D | F2F | GAF | G3 ||
G2G | B2B | cd2 | d2c | c2B | AG2 | FA2 | G3 |
G2G | B2B | cd2 | d2c | c2B | AG2 | FA2 | G3 |:
B2B | A2A | GFG | A2G | z2D | F2F | GAF | G3 :|
V:2 treble
G3 | D3 | G3 | D3 | G,3 | D3 | D3 | G,3 ||
G,3 | G,3 | G,3 | G,3 | F,3 | F,G,2 | D3 | G,3 |
G,3 | G,3 | G,3 | G,3 | F,3 | F,G,2 | D3 | G,3 |:
G3 | D3 | G3 | D3 | G,3 | D3 | D3 | G,3 :|





